X: 111226
T: Kaiser
S: "Johnny O'Leary of Sliabh Luachra" (#134)
Z: B.Black
N: Also known as "Going to the Well for Water"
L: 1/8
M: 12/8
Q: 350
R: slide
K: D
A2f A2f A2f fed|B2g B2g B2g gfe|
c2e A2A AGA a2f|gfe cde d3 d3 :|
f3 fed e3 gfe|d3 fed c3 cBA|
G2B G2B F2A F2A|E2F e2d cBc d3 :|
